X:1
T:Title
%%score { ( 1 3 ) | ( 2 4 ) }
L:1/8
M:3/4
K:C
V:1 treble nm="Grand Piano"
V:3 treble 
V:2 bass 
V:4 bass 
V:1
 z2 z2[Q:1/4=100] [CE][DF] | [EG][FA] [EG]2 [Ec]2 | [Fc]2 [FB]2 [B,D][CE] | %3
 [DF][EG] [GB]2 [B,FA]2 |[M:2/4] [CEG]4 |[M:1/4] [G,CE][G,DF] |[M:3/4] [EG][FA] [EG]2 [Ec]2 | %7
 d2 A2 BA | Gc A2 B2 |[M:2/4] [Ec]4 |[M:4/4] z4 z2 [Ec]2- | [Ec]2 [Ac]4 [FA]2- | [FA]2 z2 z4 | %13
 cd [Ge]4 [Ec]2 | z4 z2 [Ec]2- | [Ec]2 d4 [FA]2- | [FA]2 z2 z4 |[M:3/4] d2 [Ec]4- | [Ec]2 z2 z2 |] %19
V:2
 z2 z2 [C,G,][C,G,] | [C,C][C,C] [C,C]2 [C,G,]2 | [D,G,]2 [D,G,]2 [G,,G,][G,,G,] | %3
 [G,,G,][G,,G,] [G,,G,]2 G,,2 |[M:2/4] C,4 |[M:1/4] C,C, |[M:3/4] [C,C][C,C] [C,C]2 [C,G,]2 | %7
 [F,A,F]2 [F,CF]2 [F,CG][F,CF] | [G,CE][G,CE] [G,DF]2 [G,DF]2 |[M:2/4][K:bass] [C,C]4 | %10
[M:4/4] [C,G,][C,G,] [C,C]2 [C,C]2 [C,G,]2 | z2 [F,A,]2 F,2 F,2 | %12
 F,2[K:treble] [G,B,F][G,DF] [G,DF][G,CE][G,B,F][G,B,F] | [G,CE][G,B,F][K:bass] [C,C]4 [C,G,]2 | %14
 [C,G,][C,G,] [C,C]2 [C,C]2 [C,G,]2 | z2 F4 z2 | F,2[K:treble] [G,DF][G,DF] [G,DF][G,CE] [G,CG]2 | %17
[M:3/4] [G,B,F]2[K:bass] [C,C]4- | [C,C]2 z2 z2 |] %19
V:3
 x6 | x6 | x6 | x6 |[M:2/4] x4 |[M:1/4] x2 |[M:3/4] x6 | x6 | x6 |[M:2/4] x4 | %10
[M:4/4] [CE][DF] [EG]4 z2 | [C,G,]2 z2 C2 C2 | C2 BB BcdG | x8 | [CE][DF] [EG]4 z2 | %15
 G,2 z2 A,2 D2 | D2 BB Bc e2 |[M:3/4] x6 | x6 |] %19
V:4
 x6 | x6 | x6 | x6 |[M:2/4] x4 |[M:1/4] x2 |[M:3/4] x6 | x6 | x6 |[M:2/4][K:bass] x4 |[M:4/4] x8 | %11
 x8 | x2[K:treble] x6 | x2[K:bass] x6 | x8 | C,2 [F,A,]2 F,2 F,2 | x2[K:treble] x6 | %17
[M:3/4] x2[K:bass] x4 | x6 |] %19

